svg/Filled/volume-high_filled.svg

<svg viewBox="0 0 24 24" xmlns="http://www.w3.org/2000/svg" width="24" height="24"><path d="M18.98 2.38a.9.9 0 0 1 1.2.03l.07.06.16.19c.76.95 1.4 2.27 1.85 3.84.49 1.67.74 3.57.74 5.5s-.25 3.83-.74 5.5a11 11 0 0 1-2.01 4.03l-.06.06a.9.9 0 0 1-1.3-1.24l.23-.29A10 10 0 0 0 20.53 17c.44-1.5.67-3.22.67-5s-.23-3.5-.67-5a10 10 0 0 0-1.41-3.06l-.23-.29-.06-.07a.9.9 0 0 1 .15-1.2"/><path d="M16.5 5.24a.9.9 0 0 1 1.28.1 7.5 7.5 0 0 1 1.4 2.8l.12.46c.26 1.05.4 2.22.4 3.4v.5q-.06 1.53-.4 2.9l-.12.45a7.5 7.5 0 0 1-1.4 2.82.9.9 0 0 1-1.37-1.18c.37-.42.75-1.13 1.05-2.14l.1-.38q.29-1.17.33-2.52l.01-.45c0-1.05-.12-2.07-.34-2.97l-.1-.38c-.3-1-.68-1.72-1.05-2.14a.9.9 0 0 1 .1-1.27m-6.96.45.2.02q.75.12 1.22.72l.09.13c.19.31.24.66.27.94q.04.5.03 1.22v6.56q0 .72-.03 1.22c-.03.28-.08.63-.27.94l-.1.13c-.29.39-.72.65-1.2.72l-.2.03c-.44.02-.81-.16-1.1-.31q-.43-.26-1.02-.67l-1.92-1.32-.75-.5-.15-.08a3 3 0 0 0-.67-.24l-.23-.04a8 8 0 0 0-1.07-.03l-.33-.01q-.14 0-.32-.05l-.13-.05a1.4 1.4 0 0 1-.7-.64l-.07-.13a1 1 0 0 1-.1-.44v-3.62q0-.17.1-.44l.06-.13q.24-.45.71-.64L2 8.94q.18-.05.32-.06h.33c.63 0 .86 0 1.07-.04l.23-.04q.35-.08.67-.24l.15-.08.75-.5 1.92-1.32.55-.37.48-.3a2 2 0 0 1 1.08-.3"/><path d="M14.04 8.1a.9.9 0 0 1 1.2.02l.07.06.12.15q.42.58.68 1.46l.07.26q.23.91.23 1.95v.29a8 8 0 0 1-.3 1.91 4 4 0 0 1-.8 1.62l-.07.06a.9.9 0 0 1-1.3-1.24l.1-.13a3 3 0 0 0 .34-.8q.19-.66.23-1.48V12q0-.84-.17-1.52l-.06-.19q-.16-.56-.34-.8l-.1-.13-.05-.07a.9.9 0 0 1 .15-1.2"/></svg>

<svg viewBox="0 0 24 24" xmlns="http://www.w3.org/2000/svg" width="24" height="24"><path d="M18.98 2.38A.9 .9 0 0 1 20.18 2.41L20.41 2.66C21.17 3.61 21.81 4.93 22.26 6.5C22.75 8.17 23 10.07 23 12C23 13.93 22.75 15.83 22.26 17.5A11 11 0 0 1 20.25 21.53L20.19 21.59A.9 .9 0 0 1 18.89 20.35L19.12 20.06A10 10 0 0 0 20.53 17C20.97 15.5 21.2 13.78 21.2 12C21.2 10.22 20.97 8.5 20.53 7A10 10 0 0 0 19.12 3.94L18.83 3.58A.9 .9 0 0 1 18.98 2.38"/><path d="M16.5 5.24a.9.9 0 0 1 1.28.1 7.5 7.5 0 0 1 1.4 2.8l.12.46c.26 1.05.4 2.22.4 3.4v.5q-.06 1.53-.4 2.9l-.12.45a7.5 7.5 0 0 1-1.4 2.82.9.9 0 0 1-1.37-1.18c.37-.42.75-1.13 1.05-2.14l.1-.38q.29-1.17.33-2.52l.01-.45c0-1.05-.12-2.07-.34-2.97l-.1-.38c-.3-1-.68-1.72-1.05-2.14a.9.9 0 0 1 .1-1.27M9.55 5.69L9.75 5.71Q10.5 5.83 10.97 6.43L11.06 6.56C11.25 6.87 11.3 7.22 11.33 7.5Q11.37 8 11.36 8.72L11.36 15.28Q11.36 16 11.33 16.5C11.3 16.78 11.25 17.13 11.06 17.44L10.96 17.57C10.67 17.96 10.24 18.22 9.76 18.29L9.56 18.32C9.12 18.34 8.75 18.16 8.46 18.01Q8.03 17.75 7.44 17.34L4.62 15.44A3 3 0 0 0 3.95 15.2L3.72 15.16A8 8 0 0 0 2.65 15.13L2.32 15.12Q2.18 15.12 2 15.07L1.87 15.02A1.4 1.4 0 0 1 1.17 14.38L1.1 14.25A1 1 0 0 1 1 13.81L1 10.19Q1 10.02 1.1 9.75L1.16 9.62Q1.4 9.17 1.87 8.98L2 8.94Q2.18 8.89 2.32 8.88L2.65 8.88C3.28 8.88 3.51 8.88 3.72 8.84L3.95 8.8Q4.3 8.72 4.62 8.56L8.47 5.99A2 2 0 0 1 9.55 5.69"/><path d="M14.04 8.1A.9 .9 0 0 1 15.24 8.12L15.43 8.33Q15.85 8.91 16.11 9.79L16.18 10.05Q16.41 10.96 16.41 12L16.41 12.29A8 8 0 0 1 16.11 14.2A4 4 0 0 1 15.31 15.82L15.24 15.88A.9 .9 0 0 1 13.94 14.64L14.04 14.51A3 3 0 0 0 14.38 13.71Q14.57 13.05 14.61 12.23L14.61 12Q14.61 11.16 14.44 10.48L14.38 10.29Q14.22 9.73 14.04 9.49L13.89 9.29A.9 .9 0 0 1 14.04 8.09"/></svg>
